src/icons/logos/typescript.svg

<svg xmlns="http://www.w3.org/2000/svg" width="174" height="220" fill="none">
    <path fill="currentColor" fill-rule="evenodd"
        d="M16.837 35h140.327c3.142 0 5.689 2.518 5.689 5.625v138.75c0 3.107-2.547 5.625-5.689 5.625H16.837c-3.142 0-5.69-2.518-5.69-5.625V40.625c0-3.107 2.548-5.625 5.69-5.625Zm78.643 79.802V102.5H41.489v12.302h19.276v54.777h15.344v-54.777h19.37Zm6.117 53.33c2.475 1.248 5.402 2.184 8.78 2.807 3.379.624 6.94.936 10.683.936 3.649 0 7.114-.343 10.398-1.029 3.284-.686 6.162-1.817 8.637-3.392a17.402 17.402 0 0 0 5.877-6.175c1.443-2.542 2.165-5.684 2.165-9.426 0-2.713-.412-5.091-1.237-7.134a16.643 16.643 0 0 0-3.569-5.45c-1.554-1.591-3.418-3.017-5.592-4.28-2.173-1.263-4.623-2.456-7.351-3.579a93.25 93.25 0 0 1-5.378-2.362c-1.586-.764-2.935-1.544-4.045-2.339-1.11-.796-1.966-1.637-2.569-2.527-.603-.888-.904-1.894-.904-3.017 0-1.029.269-1.957.808-2.783.54-.827 1.301-1.536 2.284-2.129.984-.592 2.189-1.052 3.617-1.38 1.428-.327 3.014-.491 4.759-.491 1.269 0 2.609.094 4.021.281 1.412.187 2.831.476 4.259.865 1.428.39 2.816.881 4.164 1.474a23.152 23.152 0 0 1 3.735 2.058v-13.987c-2.316-.873-4.846-1.521-7.59-1.941-2.744-.421-5.893-.632-9.446-.632-3.616 0-7.043.382-10.279 1.146-3.235.764-6.083 1.957-8.541 3.579-2.459 1.622-4.402 3.688-5.83 6.198-1.428 2.511-2.141 5.512-2.141 9.005 0 4.46 1.308 8.265 3.926 11.415 2.617 3.15 6.591 5.816 11.92 7.999 2.094.842 4.045 1.669 5.854 2.48 1.808.81 3.37 1.653 4.687 2.526 1.316.873 2.355 1.824 3.117 2.853.761 1.029 1.142 2.199 1.142 3.509 0 .967-.238 1.863-.714 2.689-.476.827-1.198 1.544-2.165 2.152-.968.608-2.173 1.084-3.617 1.427-1.443.343-3.133.515-5.068.515-3.299 0-6.567-.569-9.803-1.707-3.235-1.139-6.234-2.846-8.994-5.123v14.969Z"
        clip-rule="evenodd" />
</svg>

<svg width="174" height="220" viewBox="0 0 174 220" fill="none" xmlns="http://www.w3.org/2000/svg">
<path fill-rule="evenodd" clip-rule="evenodd" d="M16.8369 35H157.164C160.306 35 162.853 37.5184 162.853 40.625V179.375C162.853 182.482 160.306 185 157.164 185H16.8369C13.695 185 11.1479 182.482 11.1479 179.375V40.625C11.1479 37.5184 13.695 35 16.8369 35V35ZM95.4797 114.802V102.5H41.4888V114.802H60.7645V169.579H76.1095V114.802H95.4797ZM101.597 168.132C104.072 169.38 106.999 170.316 110.377 170.939C113.756 171.563 117.317 171.875 121.06 171.875C124.709 171.875 128.174 171.532 131.458 170.846C134.742 170.16 137.62 169.029 140.095 167.454C142.569 165.879 144.529 163.821 145.972 161.279C147.415 158.737 148.137 155.595 148.137 151.853C148.137 149.14 147.725 146.762 146.9 144.719C146.075 142.676 144.886 140.86 143.331 139.269C141.777 137.678 139.913 136.252 137.739 134.989C135.566 133.726 133.116 132.533 130.388 131.41C128.389 130.599 126.596 129.812 125.01 129.048C123.424 128.284 122.075 127.504 120.965 126.709C119.855 125.913 118.999 125.072 118.396 124.182C117.793 123.294 117.492 122.288 117.492 121.165C117.492 120.136 117.761 119.208 118.3 118.382C118.84 117.555 119.601 116.846 120.584 116.253C121.568 115.661 122.773 115.201 124.201 114.873C125.629 114.546 127.215 114.382 128.96 114.382C130.229 114.382 131.569 114.476 132.981 114.663C134.393 114.85 135.812 115.139 137.24 115.528C138.668 115.918 140.056 116.409 141.404 117.002C142.752 117.595 143.997 118.281 145.139 119.06V105.073C142.823 104.2 140.293 103.552 137.549 103.132C134.805 102.711 131.656 102.5 128.103 102.5C124.487 102.5 121.06 102.882 117.824 103.646C114.589 104.41 111.741 105.603 109.283 107.225C106.824 108.847 104.881 110.913 103.453 113.423C102.025 115.934 101.312 118.935 101.312 122.428C101.312 126.888 102.62 130.693 105.238 133.843C107.855 136.993 111.829 139.659 117.158 141.842C119.252 142.684 121.203 143.511 123.012 144.322C124.82 145.132 126.382 145.975 127.699 146.848C129.015 147.721 130.054 148.672 130.816 149.701C131.577 150.73 131.958 151.9 131.958 153.21C131.958 154.177 131.72 155.073 131.244 155.899C130.768 156.726 130.046 157.443 129.079 158.051C128.111 158.659 126.906 159.135 125.462 159.478C124.019 159.821 122.329 159.993 120.394 159.993C117.095 159.993 113.827 159.424 110.591 158.286C107.356 157.147 104.357 155.44 101.597 153.163V168.132Z" fill="currentColor"/>
</svg>
